_includes/icons/ios-menu-vertical.svg

<svg fill="#666" height="50" viewBox="0 0 50 50" width="50" xmlns="http://www.w3.org/2000/svg"><path d="m25 3c-3.300781 0-6 2.699219-6 6s2.699219 6 6 6 6-2.699219 6-6-2.699219-6-6-6zm0 2c2.222656 0 4 1.777344 4 4s-1.777344 4-4 4-4-1.777344-4-4 1.777344-4 4-4zm0 14c-3.300781 0-6 2.699219-6 6s2.699219 6 6 6 6-2.699219 6-6-2.699219-6-6-6zm0 2c2.222656 0 4 1.777344 4 4s-1.777344 4-4 4-4-1.777344-4-4 1.777344-4 4-4zm0 14c-3.300781 0-6 2.699219-6 6s2.699219 6 6 6 6-2.699219 6-6-2.699219-6-6-6zm0 2c2.222656 0 4 1.777344 4 4s-1.777344 4-4 4-4-1.777344-4-4 1.777344-4 4-4z"/></svg>

<svg xmlns="http://www.w3.org/2000/svg" viewBox="0 0 50 50" width="50" height="50" fill="#666"><path d="M 25 3 C 21.699219 3 19 5.699219 19 9 C 19 12.300781 21.699219 15 25 15 C 28.300781 15 31 12.300781 31 9 C 31 5.699219 28.300781 3 25 3 Z M 25 5 C 27.222656 5 29 6.777344 29 9 C 29 11.222656 27.222656 13 25 13 C 22.777344 13 21 11.222656 21 9 C 21 6.777344 22.777344 5 25 5 Z M 25 19 C 21.699219 19 19 21.699219 19 25 C 19 28.300781 21.699219 31 25 31 C 28.300781 31 31 28.300781 31 25 C 31 21.699219 28.300781 19 25 19 Z M 25 21 C 27.222656 21 29 22.777344 29 25 C 29 27.222656 27.222656 29 25 29 C 22.777344 29 21 27.222656 21 25 C 21 22.777344 22.777344 21 25 21 Z M 25 35 C 21.699219 35 19 37.699219 19 41 C 19 44.300781 21.699219 47 25 47 C 28.300781 47 31 44.300781 31 41 C 31 37.699219 28.300781 35 25 35 Z M 25 37 C 27.222656 37 29 38.777344 29 41 C 29 43.222656 27.222656 45 25 45 C 22.777344 45 21 43.222656 21 41 C 21 38.777344 22.777344 37 25 37 Z"/></svg>
